X:1
T:The Lords' Prayer
T:The Lord's Prayer
T:John Farmer
T:Source : The Whole Booke of Psalmes---London---T.Este---1604. Editor : André Vierendeels (20/05/14).
C:John Farmer
%%score [ 1 [ 2 3 ] 4 ]
L:1/8
Q:1/4=120
M:4/4
K:F
V:1 treble nm="Soprano" snm="S"
V:2 treble nm="Alto" snm="A"
V:3 treble-8 nm="Tenor" snm="T"
V:4 bass nm="Bass" snm="B"
V:1
 A4 A2 c2 | f4 d2 d2- | d2 ^c2 !fermata!d4 | B4 A2 A2 | G3 G !fermata!^F4 | G4 d2 f2 | %6
w: Our Fa- ther|which in hea-|* ven art,|Lord hal- lowed-|be thy name.|Thy King- dom|
 e2 d2 ^c2 d2 | e2 f2 !fermata!d4 | f4 e2 d2 | ^c2 d2 d2 =c2 | !fermata!c4 z2 B2 | B2 A2 A2 A2 | %12
w: come, thy will be|done in earth,|even as the|same in hea- ven|is. Give|us, (O Lord,) our|
 G3 G ^F2 G2 | !fermata!^F4 A4 | A2 c2 e2 d2 | c2 B2 d3 d | ^c2 d2 d2 c2 | !fermata!d4 A4 | %18
w: dai- ly bread this|day. As|we for- give our|deb- ters, so for-|give our debts, we|pray. In-|
 F3 G A2 A2 | A2 B2 A2 F2 | G2 B2 A2 G2 | !fermata!A4 A4 | c2 d2 e2 f2 | e2 d2 !fermata!^c4 | %24
w: to temp- ta- tion|lead us not. From|e- vil make us|free. For|King- dom power and|glo- ry thine,|
"^-natural" c2 A2 f4 | e2 e2 !fermata!d4 |] %26
w: both now and|e- ver be.|
V:2
 F4 E2 E2 | A6 A2 | A3 G !fermata!^F4 | G2 G4 ^F2 | G2 G,2 !fermata!A,4 | B,2 D3 D C2 | A,2 A4 F2 | %7
w: Our Fa- ther|which in|hea- ven art,|Lord hal- lowed|be thy name.|Thy King- dom come,|thy will be|
 E2 A2 !fermata!F4 | A4 A2 F2 | A2 A2 B2 G2 | !fermata!A4 F4 | G2 E2 ^F2 D2 | D3 D D2 D2 | %13
w: donne in earth,|evn as the|same in hea- ven|is. Give|us, (O Lord,) our|dai- ly bread this|
"^-natural" !fermata!D4 F4 | C2 G2 G2 G2 | G2 G2 A2 A2 | A2 G2 A3 G | %17
w: day. As|we for- give our|deb- ters, so for-|give our debts, we|
"^-natural" !fermata!^F4 F3 G | A2 D2 F2 F2 | D2 D2 C2 D2 | D2 D2 C2 C2 | !fermata!C4 D2 C2 | %22
w: pray. In- *|to tem- pta- tion|lead us not. From|e- vel make us|free. For- *|
 F2 D2 A4 | A2 FG !fermata!A4 | E4 F2 A2 | A3 G !fermata!^F4 |] %26
w: King- dom power|and glo- ry thine,|both now and|e- ver be.|
V:3
 A4 c2 A2 | c2 d2 f4 | e4 !fermata!d4 | d4 e2 d2 | d2 ^c2 !fermata!d4 | d4 f2 f2 | c2 f2 e2 d2 | %7
w: Our Fa- ther|which in hea-|ven art,|Lord hal- lowed|be thy name.|Thy King- dom|come, thy will be|
 ^c2 d2 !fermata!A4 | d4 ^c2 d2 | e2 f2 f2 e2 | !fermata!f4 d4 | d2 ^c2 d2 A2 | B3 B A2 G2 | %13
w: done in earth,|evn as the|same- in hea- ven|is. Give|us, (O Lord,) our|dai- ly bread this|
 !fermata!A4 A4 | A2 G2 c2 d2 | e2 d2 f2 f2 | e2 d2 e2 e2 | !fermata!d4 A4 | A2 B2 A3 A | %19
w: day. As|we for- give our|deb- ters, so for-|give our debts, we|pray. In-|to tem- ta- tion|
 F2 G2 A2 A2 | G2 F2 F2 E2 | !fermata!F4 F4 | A2 G2 c2 A2 | c2 d2 !fermata!e4 | c4 A2 d2 | %25
w: lead us not. From|e- vil make us|free. For|King- dom power and|glo- ry thine,|both now and|
 d2 ^c2 !fermata!d4 |] %26
w: e- ver be.|
V:4
 D,4 A,3 G, | F,2 D,2 D4 | A,4 !fermata!D,4 | G,4 C,2 D,2 | E,3 E, !fermata!D,4 | G,2 B,4 F,2 | %6
w: Our Fa- ther|which in hea-|ven art,|Lord hal- lowed|be thy name,|Thy Kin- dom|
 A,2 D,2 A,,2 D,2 | A,2 D,2 !fermata!D,4 | D,4 A,2 B,2 | A,2 D2 B,2 C2 | !fermata!F,4 B,4 | %11
w: come, thy will be|done in earth,|even ad the|same in hea- ven|id. Give|
 G,2 A,2 D,2 ^F,2 | G,3 G, D,2 B,,2 | !fermata!D,4 D,4 | F,2 E,2 C,2 G,2 | E,2 G,2 D,2 D2 | %16
w: us, (O Lord,) our|dai- ly bread this|day. As|we for- give our|deb- * so for-|
 A,2 B,2 A,2 A,2 | !fermata!D,4 D,4 | D,2 D,2 D,3 D, | D,2 B,,2 F,2 D,2 | B,,2 B,,2 C,2 C,2 | %21
w: give our debbs, we|pray. In-|to temp- ta- tion|lead us not. From|e- vil make us|
 !fermata!F,4 D,2 F,2- | F,2 B,2 A,2 D,2 | A,2 B,2 !fermata!A,4 | A,,4 D,2 D,2 | %25
w: free. For King-|* dom power and|glo- ry thine,|both now and|
 A,2 A,,2 !fermata!D,4 |] %26
w: e- ver be.|

